packages/dnb-ui-lib/assets/icons/chatbot.svg

<svg width="16" height="16" viewBox="0 0 16 16" fill="none" xmlns="http://www.w3.org/2000/svg">
<path d="M14.8143 8.35493C14.4831 8.10612 14.013 8.17288 13.7642 8.50404C13.5154 8.8352 13.5821 9.30536 13.9133 9.55417L14.8143 8.35493ZM13.9133 10.9004C13.5821 11.1492 13.5154 11.6193 13.7642 11.9505C14.013 12.2817 14.4831 12.3484 14.8143 12.0996L13.9133 10.9004ZM2.08671 9.55417C2.41788 9.30536 2.48464 8.8352 2.23583 8.50404C1.98702 8.17288 1.51686 8.10612 1.1857 8.35493L2.08671 9.55417ZM1.1857 12.0996C1.51686 12.3484 1.98702 12.2817 2.23583 11.9505C2.48464 11.6193 2.41788 11.1492 2.08671 10.9004L1.1857 12.0996ZM8.00038 4.81818V5.56818V4.81818ZM13.9133 9.55417C14.1192 9.70886 14.25 9.95268 14.25 10.2273H15.75C15.75 9.46103 15.3811 8.78074 14.8143 8.35493L13.9133 9.55417ZM14.25 10.2273C14.25 10.5019 14.1192 10.7457 13.9133 10.9004L14.8143 12.0996C15.3811 11.6738 15.75 10.9935 15.75 10.2273H14.25ZM1.75 10.2273C1.75 9.95268 1.88082 9.70886 2.08671 9.55417L1.1857 8.35493C0.618941 8.78074 0.25 9.46103 0.25 10.2273H1.75ZM2.08671 10.9004C1.88082 10.7457 1.75 10.5019 1.75 10.2273H0.25C0.25 10.9935 0.618942 11.6738 1.1857 12.0996L2.08671 10.9004ZM2.15909 9.90947C2.15909 13.1355 4.77467 15.75 8.00038 15.75V14.25C5.60281 14.25 3.65909 12.3068 3.65909 9.90947H2.15909ZM8.00038 15.75C11.2252 15.75 13.8409 13.1354 13.8409 9.90947H12.3409C12.3409 12.3068 10.3969 14.25 8.00038 14.25V15.75ZM13.8409 9.90947C13.8409 6.68342 11.2253 4.06818 8.00038 4.06818V5.56818C10.3968 5.56818 12.3409 7.51179 12.3409 9.90947H13.8409ZM8.00038 4.06818C4.77455 4.06818 2.15909 6.68337 2.15909 9.90947H3.65909C3.65909 7.51184 5.60293 5.56818 8.00038 5.56818V4.06818ZM6.29545 1.95499C6.29545 2.89601 7.05818 3.65909 8.00022 3.65909V2.15909C7.88645 2.15909 7.79545 2.06742 7.79545 1.95499H6.29545ZM8.00022 3.65909C8.94171 3.65909 9.70455 2.8959 9.70455 1.95499H8.20455C8.20455 2.06754 8.11321 2.15909 8.00022 2.15909V3.65909ZM9.70455 1.95499C9.70455 1.01376 8.9422 0.25 8.00022 0.25V1.75C8.11272 1.75 8.20455 1.84113 8.20455 1.95499H9.70455ZM8.00022 0.25C7.05758 0.25 6.29545 1.01368 6.29545 1.95499H7.79545C7.79545 1.84121 7.88691 1.75 8.00022 1.75V0.25ZM8.75038 4.81812L8.75022 2.90903L7.25022 2.90915L7.25038 4.81824L8.75038 4.81812Z" fill="black"/>
<path fill-rule="evenodd" clip-rule="evenodd" d="M5.75021 11.5C5.33524 11.5 5 11.1637 5 10.75C5 10.336 5.33524 10 5.75021 10C6.16443 10 6.5 10.3361 6.5 10.75C6.5 11.1638 6.16443 11.5 5.75021 11.5ZM10.2501 11.5C9.83611 11.5 9.5 11.1637 9.5 10.75C9.5 10.336 9.83611 10 10.2501 10C10.665 10 11 10.3361 11 10.75C11 11.1638 10.665 11.5 10.2501 11.5Z" fill="black"/>
</svg>

<svg width="16" height="16" viewBox="0 0 16 16" fill="none" xmlns="http://www.w3.org/2000/svg"><path d="M14.814 8.355a.75.75 0 10-.9 1.2l.9-1.2zm-.9 2.545a.75.75 0 10.9 1.2l-.9-1.2zM2.086 9.554a.75.75 0 10-.901-1.2l.9 1.2zm-.9 2.546a.75.75 0 10.9-1.2l-.9 1.2zM8 4.818v.75-.75zm5.913 4.736a.838.838 0 01.337.673h1.5c0-.766-.369-1.446-.936-1.872l-.9 1.2zm.337.673c0 .275-.13.519-.337.673l.901 1.2a2.338 2.338 0 00.936-1.873h-1.5zm-12.5 0c0-.274.13-.518.337-.673l-.901-1.2a2.338 2.338 0 00-.936 1.873h1.5zm.337.673a.838.838 0 01-.337-.673H.25c0 .766.369 1.447.936 1.873l.9-1.2zm.072-.99A5.84 5.84 0 008 15.75v-1.5a4.34 4.34 0 01-4.34-4.34h-1.5zM8 15.75a5.84 5.84 0 005.84-5.84h-1.5A4.34 4.34 0 018 14.25v1.5zm5.84-5.84A5.841 5.841 0 008 4.067v1.5a4.341 4.341 0 014.34 4.341h1.5zM8 4.067A5.841 5.841 0 002.16 9.91h1.5A4.341 4.341 0 018 5.57v-1.5zM6.295 1.955c0 .941.763 1.704 1.705 1.704v-1.5a.204.204 0 01-.205-.204h-1.5zM8 3.659c.942 0 1.705-.763 1.705-1.704h-1.5A.204.204 0 018 2.159v1.5zm1.705-1.704C9.705 1.014 8.942.25 8 .25v1.5c.113 0 .205.091.205.205h1.5zM8 .25c-.942 0-1.705.764-1.705 1.705h1.5c0-.114.092-.205.205-.205V.25zm.75 4.568V2.91h-1.5v1.91h1.5z" fill="#000"/><path fill-rule="evenodd" clip-rule="evenodd" d="M5.75 11.5a.75.75 0 110-1.5.75.75 0 010 1.5zm4.5 0a.75.75 0 11.001-1.501.75.75 0 010 1.501z" fill="#000"/></svg>
